X:1
T:Song 34 (Gibbons), LM
T:Orlando Gibbons, 1623
T:Song 34 (Gibbons), LM
T:Public Domain
C:Orlando Gibbons, 1623
Z:Public Domain
%%score ( 1 2 ) ( 3 4 )
L:1/8
M:none
K:F
V:1 treble 
V:2 treble 
V:3 bass 
V:4 bass 
V:1
 [CF]4 [CF]2 F2 | [EG]2 [FA]2 [DB]2 [EG]2 | [Fc]6 F2 [FA]2 [FB]2 | [Gc]4 G2 F2 z2 =B2 x2 | %4
 [Ec]6 [FA]2 [FB]2 (GA) | [Bd]4 [Ac]2 (F2 G2) [FA]2 | [EG]6 [Fc]2 [FB]2 [FA]2 | %7
 [EG]4 [DF]2 A2 z2 E2 x2 | [CF]8 |] %9
V:2
 x6 F2 | x8 | x6 F2 x4 | x4 G2 c4 D4 | x10 c2 | x6 B4 x2 | x12 | x6 F4 G4 | x8 |] %9
V:3
 [F,A,]4 [F,A,]2 [F,A,]2 | [C,C]2 [A,,C]2 [G,,B,]2 [G,,B,]2 | [F,,A,]6 [F,A,]2 [F,C]2 [D,D]2 | %3
 [C,E]4 [E,C]2 [F,A,]2 z2 D2 x2 | [C,C]6 [F,C]2 [D,F]2 [C,E]2 | %5
 [B,,D]4 [C,E]2 [D,F]2 [E,C]2 [F,C]2 | [C,C]6 [A,,C]2 [B,,D]2 [F,,C]2 | %7
 (C2 B,2) [D,A,]2 A,,2 z2 G,2 x2 | [F,,A,]8 |] %9
V:4
 x8 | x8 | x12 | x8 G,4 x2 | x12 | x12 | x12 | C,4 C4 C,4 x2 | x8 |] %9

